modules/zondicons/icons/information-solid.svg

<?xml version="1.0" encoding="UTF-8" standalone="no"?>
<svg width="20px" height="20px" viewBox="0 0 20 20" version="1.1" xmlns="http://www.w3.org/2000/svg" xmlns:xlink="http://www.w3.org/1999/xlink">
    <!-- Generator: Sketch 3.7.2 (28276) - http://www.bohemiancoding.com/sketch -->
    <title>information-solid</title>
    <desc>Created with Sketch.</desc>
    <defs></defs>
    <g id="Page-1" stroke="none" stroke-width="1" fill="none" fill-rule="evenodd">
        <g id="information-solid" fill="#000000">
            <path d="M2.92893219,17.0710678 C6.83417511,20.9763107 13.1658249,20.9763107 17.0710678,17.0710678 C20.9763107,13.1658249 20.9763107,6.83417511 17.0710678,2.92893219 C13.1658249,-0.976310729 6.83417511,-0.976310729 2.92893219,2.92893219 C-0.976310729,6.83417511 -0.976310729,13.1658249 2.92893219,17.0710678 Z M9,11 L9,10.5 L9,9 L11,9 L11,15 L9,15 L9,11 Z M9,5 L11,5 L11,7 L9,7 L9,5 Z" id="Combined-Shape"></path>
        </g>
    </g>
</svg>

<svg width="20" height="20" viewBox="0 0 20 20" xmlns="http://www.w3.org/2000/svg"><path d="M2.929 17.071c3.905 3.905 10.237 3.905 14.142 0 3.905-3.905 3.905-10.237 0-14.142-3.905-3.905-10.237-3.905-14.142 0-3.905 3.905-3.905 10.237 0 14.142zM9 11V9h2v6H9v-4zm0-6h2v2H9V5z" fill="#000" fill-rule="evenodd"/></svg>
